X:1     %Music
T:A Dashing lad from Buckingham
B:Broadwood, L, 1893, English County Songs, London, Leadenhall Press
S:Words and Music from F Scarlett Potter, Esq.
Z:Lucy Broadwood
F:http://www.folkinfo.org/songs
M:6/8     %Meter
L:1/8     %
K:A
E |E A A A2 B |G F E z2 z |E A A B A B | c3- c z
w:A dash-ing young lad from Buck-ing-ham, Once a great wa-ger did lay
 A/A/ |A c e e c A |A G2- G z A |F B A G F G | A3- A z 
w:That he'd pass all the watch-men in Lon-don * But de-vil a word would he say.
E |E A A A3/2 B/ A |G F E z2 z |E A A B3/2 A/ B | c3- c z z |
w:But still he'd sing, Fol de rol id-dle ol; Still he'd sing, Fol de rol lay;
A c e He3/2 c/ A |A G A z2 z |F3/2 B/ A G F G | A3- A2 z |]
w:Still he'd sing, Fol de rol id-dle ol; Fol de rol ar-il-ol-day.